X:4995
T:Fancy. BF14.04
M:4/4
Q:160
S:MS14,Browne "D",early 19thC,Troutbeck,W'morland
R:Hornpipe
O:England
A:Lake District
N:The final bar has three "f"crotchets,which sound wrong and then three
N:"g" crotchets  added above them in the same hand, which sound right. C
Z:vmp.Chris Partington
K:G
DB,|G,2G2G2BG|G,2G2G2dc|B2GFE2cB|AGFE DCB,A,|!
B,2G2G2BG|C2A2A2dc|BABG DGFA|G2G2G2::!
Bc|dBdBG2cd|ececA2ef|gege dBAG|FGAFD2Bc|!
dBdBG2AB|ececA2ef|gege afaf|g2g2g2:|]
